thulsonASU/mycobot_280_M5-ROS-Experimentation/ros/catkin_ws/src/drag_n_teach/poses/joint_vals.csv
joint2_to_joint1,joint3_to_joint2,joint4_to_joint3,joint5_to_joint4,joint6_to_joint5,joint6output_to_joint6,joint2_to_joint1_vel,joint3_to_joint2_vel,joint4_to_joint3_vel,joint5_to_joint4_vel,joint6_to_joint5_vel,joint6output_to_joint6_vel
-0.0004613180000001549,-0.0004613180000001549,-0.0004613180000001549,-0.0004613180000001549,-0.0004613180000001549,-0.0004613180000001549,0.0,0.0,0.0,0.0,0.0,0.0
-0.0004613180000001549,-0.0004613180000001549,-0.0004613180000001549,-0.0004613180000001549,-0.0004613180000001549,-0.0004613180000001549,0.0,0.0,0.0,0.0,0.0,0.0
-0.0004613180000001549,-0.0004613180000001549,-0.0004613180000001549,-0.0004613180000001549,-0.0004613180000001549,-0.0004613180000001549,0.0,0.0,0.0,0.0,0.0,0.0
-0.0004613180000001549,-0.0004613180000001549,-0.0004613180000001549,-0.0004613180000001549,-0.0004613180000001549,-0.0004613180000001549,0.0,0.0,0.0,0.0,0.0,0.0
0.020350644570458168,-0.07477569575551496,0.053242694948468505,0.02900014003293325,-0.00044974278914046857,-0.000460294004896266,0.09150078427526129,-0.32672669982645897,0.23611224971588318,0.1295287028688298,5.089096562744274e-05,4.502043225508324e-06
0.04116260714091649,-0.14909007351102976,0.10694670789693717,0.058461598065866656,-0.00043816757828078225,-0.00045927000979237705,0.14828326831685967,-0.5294829249867709,0.38263602170001954,0.2099101068298317,8.247228448159271e-05,7.295868432929179e-06
0.06197456971137482,-0.22340445126654457,0.16065072084540585,0.08792305609880008,-0.0004265923674210959,-0.00045824601468848815,0.18203171564556586,-0.6499902944843289,0.4697218525627086,0.25768447992344257,0.00010124251783629306,8.956367519041208e-06
0.08278653228183314,-0.2977188290220594,0.21435473379387449,0.11738451413173347,-0.00041501715656140956,-0.00045722201958459926,0.2084526079904018,-0.7443327750507199,0.537899370170358,0.29508595075421074,0.0001159373069008598,1.0256334512057558e-05
0.10359849485229146,-0.3720332067775741,0.26805874674234315,0.14684597216466688,-0.00040344194570172325,-0.00045619802448071037,0.23089185990909294,-0.8244578011260504,0.5958025050388542,0.32685100301465125,0.00012841758460716116,1.1360395891270847e-05
0.1244104574227498,-0.446347584533089,0.32176275969081186,0.1763074301976003,-0.00039186673484203693,-0.0004551740293768214,0.25252302676527555,-0.9016973550412929,0.6516204251894446,0.35747212835923564,0.00014044842103855005,1.242469767814682e-05
0.14522241999320812,-0.5206619622886037,0.3754667726392805,0.20576888823053371,-0.0003802915239823506,-0.00045415003427293254,0.2719377727901926,-0.9710226176271033,0.7017190051952231,0.38495568370855493,0.00015124652709245368,1.3379946603155685e-05
0.16603438256366643,-0.5949763400441186,0.4291707855877491,0.2352303462634671,-0.00036871631312266424,-0.00045312603916904364,0.2706317204602373,-0.9663590273535676,0.6983488160070652,0.38310683328046435,0.00015052012605930567,1.3315685907569224e-05
0.18684634513412476,-0.6692907177996333,0.4828747985362178,0.2646918042964005,-0.0003571411022629779,-0.00045210204406515475,0.2512169744353202,-0.8970337647677572,0.648250236001287,0.35562327793114534,0.00013972202000540212,1.2360436982560368e-05
0.20765830770458307,-0.7436050955551481,0.5365788114846864,0.2941532623293339,-0.0003455658914032916,-0.0004510780489612658,0.23089185990909272,-0.8244578011260504,0.5958025050388537,0.3268510030146511,0.00012841758460716118,1.1360395891270849e-05
0.22847027027504138,-0.817919473310663,0.590282824433155,0.3236147203622673,-0.0003339906805436053,-0.0004500540538573769,0.20845260799040174,-0.74433277505072,0.5378993701703582,0.2950859507542106,0.00011593730690085969,1.0256334512057548e-05
0.24928223284549975,-0.8922338510661778,0.6439868373816239,0.3530761783952008,-0.000322415469683919,-0.000449030058753488,0.18156865557223778,-0.6483368213389532,0.4685269539994549,0.25702897110869727,0.00010098497278395447,8.933583927811437e-06
0.2700941954159581,-0.9665482288216926,0.6976908503300925,0.38253763642813415,-0.0003108402588242326,-0.00044800606364959913,0.14712634779288422,-0.5253518475566267,0.3796506581337732,0.20827236770027335,8.182882767315488e-05,7.238945355726407e-06
0.2909061579864164,-1.0408626065772073,0.7513948632785612,0.4119990944610676,-0.0002992650479645463,-0.0004469820685457102,0.09080692382461408,-0.3242490955416907,0.23432178471289133,0.12854647255401708,5.050505387134348e-05,4.46790373953532e-06
0.3117181205568747,-1.1151769843327222,0.8050988762270298,0.44146055249400096,-0.00028768983710486,-0.0004459580734418213,0.0,0.0,0.0,0.0,0.0,0.0
0.3117181205568747,-1.1151769843327222,0.8050988762270298,0.44146055249400096,-0.00028768983710486,-0.0004459580734418213,0.0,0.0,0.0,0.0,0.0,0.0
0.22754764378937714,-1.1044661910396096,0.7995318354710026,0.43505498958794503,0.07633927392666638,-0.0010620069347861685,-0.34767114514698844,0.04424156678992616,-0.022994991938495583,-0.026458557399065573,0.3165122173951444,-0.0025446263501835605
0.14337716702187958,-1.0937553977464969,0.7939647947149754,0.42864942668188905,0.15296623769043763,-0.0016780557961305156,-0.56414959182792,0.07178870664061657,-0.03731289034844705,-0.042933054886472505,0.5135894673586701,-0.004129045325874553
0.05920669025438208,-1.0830446044533844,0.7883977539589482,0.4222438637758331,0.22959320145420886,-0.0022941046574748627,-0.6941985312820366,0.08833758888503046,-0.045914335582255536,-0.05283007216059689,0.6319831815655442,-0.005080881458287735
-0.024963786513115538,-1.0723338111602718,0.782830713202921,0.41583830086977713,0.3062201652179801,-0.00291015351881921,-0.8010817045856555,0.10193859983010742,-0.052983595550431625,-0.06096412244150946,0.7292872882099292,-0.005863165933073924
-0.10913426328061304,-1.061623017867159,0.7772636724468938,0.4094327379637212,0.3828471289817514,-0.0035262023801635573,-0.8927696584567255,0.11360600102701608,-0.05904784272639743,-0.0679417822909481,0.8127579989469014,-0.006534235668573834
-0.19330474004811055,-1.0509122245740465,0.7716966316908666,0.4030271750576653,0.4594740927455226,-0.004142251241507904,-0.9663590273535676,0.12297033575689775,-0.06391504832617886,-0.07354209905032429,0.8797521531968935,-0.007072840755024459
-0.2774752168156082,-1.040201431280934,0.7661295909348393,0.3966216121516093,0.536101056509294,-0.004758300102852252,-1.0,0.12725118954355985,-0.06614006442431034,-0.0761022528570191,0.9103781599745049,-0.007319061088914183
-0.3616456935831058,-1.0294906379878213,0.7605625501788121,0.39021604924555336,0.6127280202730652,-0.005374348964196599,-1.0,0.12725118954355996,-0.06614006442431038,-0.07610225285701883,0.9103781599745044,-0.0073190610889141885
-0.44581617035060334,-1.0187798446947087,0.7549955094227849,0.38381048633949744,0.6893549840368364,-0.005990397825540946,-1.0,0.12725118954355874,-0.0661400644243111,-0.07610225285701924,0.910378159974506,-0.007319061088914195
-0.5299866471181007,-1.0080690514015962,0.7494284686667576,0.37740492343344145,0.7659819478006077,-0.006606446686885293,-1.0,0.1272511895435599,-0.066140064424311,-0.07610225285701913,0.9103781599745049,-0.007319061088914187
-0.6141571238855985,-0.9973582581084834,0.7438614279107304,0.3709993605273855,0.8426089115643789,-0.00722249554822964,-1.0,0.12725118954355996,-0.06614006442431038,-0.07610225285701883,0.9103781599745044,-0.0073190610889141885
-0.6983276006530958,-0.9866474648153709,0.7382943871547032,0.3645937976213296,0.9192358753281501,-0.007838544409573987,-1.0,0.1272511895435593,-0.06614006442431038,-0.07610225285701916,0.9103781599745051,-0.007319061088914199
-0.7824980774205936,-0.9759366715222583,0.732727346398676,0.3581882347152736,0.9958628390919214,-0.008454593270918336,-1.0,0.1272511895435598,-0.06614006442431028,-0.07610225285701905,0.910378159974504,-0.007319061088914194
-0.8666685541880912,-0.9652258782291456,0.7271603056426488,0.3517826718092177,1.0724898028556926,-0.009070642132262684,-1.0,0.1272511895435593,-0.06614006442431038,-0.07610225285701883,0.9103781599745038,-0.007319061088914183
-0.9508390309555887,-0.9545150849360331,0.7215932648866216,0.34537710890316176,1.1491167666194637,-0.00968669099360703,-1.0,0.1272511895435593,-0.06614006442431038,-0.07610225285701916,0.9103781599745044,-0.007319061088914183
-1.0350095077230863,-0.9438042916429205,0.7160262241305944,0.33897154599710577,1.225743730383235,-0.010302739854951377,-1.0,0.12725118954356013,-0.06614006442431047,-0.07610225285701927,0.9103781599745057,-0.007319061088914193
-1.1191799844905836,-0.9330934983498078,0.7104591833745671,0.33256598309104984,1.3023706941470061,-0.010918788716295723,-1.0,0.1272511895435593,-0.06614006442431038,-0.07610225285701883,0.9103781599745044,-0.007319061088914194
-1.2033504612580814,-0.9223827050566953,0.7048921426185399,0.3261604201849939,1.3789976579107774,-0.011534837577640072,-1.0,0.12725118954355913,-0.06614006442431028,-0.07610225285701906,0.9103781599745047,-0.007319061088914194
-1.287520938025579,-0.9116719117635826,0.6993251018625127,0.31975485727893793,1.4556246216745488,-0.01215088643898442,-1.0,0.12725118954356013,-0.06614006442431047,-0.07610225285701959,0.910378159974507,-0.007319061088914193
-1.3716914147930763,-0.90096111847047,0.6937580611064855,0.31334929437288195,1.53225158543832,-0.012766935300328765,-1.0,0.1272511895435593,-0.06614006442431038,-0.07610225285701883,0.9103781599745044,-0.007319061088914183
-1.455861891560574,-0.8902503251773575,0.6881910203504583,0.3069437314668261,1.6088785492020912,-0.013382984161673113,-1.0,0.12725118954355913,-0.06614006442431028,-0.07610225285701873,0.9103781599745033,-0.007319061088914184
-1.5400323683280717,-0.8795395318842448,0.6826239795944311,0.3005381685607701,1.6855055129658625,-0.01399903302301746,-1.0,0.12725118954355996,-0.06614006442431038,-0.07610225285701949,0.9103781599745058,-0.007319061088914194
-1.6242028450955692,-0.8688287385911322,0.6770569388384039,0.2941326056547141,1.7621324767296338,-0.014615081884361808,-1.0,0.12725118954355963,-0.06614006442431056,-0.07610225285701903,0.9103781599745069,-0.007319061088914202
-1.7083733218630663,-0.8581179452980197,0.6714898980823767,0.28772704274865823,1.838759440493405,-0.015231130745706154,-1.0,0.12725118954355946,-0.06614006442431046,-0.07610225285701894,0.9103781599745058,-0.007319061088914183
-1.7925437986305641,-0.847407152004907,0.6659228573263495,0.28132147984260225,1.9153864042571762,-0.0158471796070505,-1.0,0.12725118954355963,-0.0661400644243102,-0.07610225285701928,0.9103781599745034,-0.007319061088914185
-1.876714275398062,-0.8366963587117944,0.6603558165703223,0.27491591693654627,1.9920133680209475,-0.01646322846839485,-1.0,0.1272511895435593,-0.06614006442431103,-0.07610225285701916,0.9103781599745044,-0.0073190610889142145
-1.9608847521655592,-0.8259855654186818,0.654788775814295,0.26851035403049034,2.0686403317847186,-0.017079277329739198,-1.0,0.12725118954355996,-0.06614006442431038,-0.07610225285701883,0.9103781599745058,-0.007319061088914194
-2.045055228933057,-0.8152747721255691,0.6492217350582679,0.2621047911244344,2.14526729554849,-0.017695326191083546,-1.0,0.12725118954355996,-0.06614006442430972,-0.07610225285701916,0.9103781599745058,-0.007319061088914173
-2.1292257057005544,-0.8045639788324566,0.6436546943022406,0.2556992282183784,2.2218942593122613,-0.01831137505242789,-1.0,0.12725118954355863,-0.06614006442431038,-0.07610225285701916,0.9103781599745031,-0.007319061088914173
-2.213396182468052,-0.793853185539344,0.6380876535462134,0.2492936653123225,2.2985212230760323,-0.018927423913772237,-1.0,0.1272511895435593,-0.06614006442431103,-0.07610225285701899,0.9103781599745058,-0.007319061088914194
-2.2975666592355495,-0.7831423922462314,0.6325206127901861,0.24288810240626654,2.375148186839804,-0.019543472775116585,-1.0,0.12725118954355996,-0.06614006442431038,-0.07610225285701916,0.9103781599745058,-0.007319061088914194
-2.3817371360030473,-0.7724315989531187,0.626953572034159,0.2364825395002106,2.451775150603575,-0.020159521636460932,-1.0,0.1272511895435593,-0.06614006442431038,-0.07610225285701916,0.9103781599745058,-0.007319061088914194
-2.4659076127705446,-0.7617208056600062,0.6213865312781317,0.23007697659415463,2.5284021143673465,-0.02077557049780528,-1.0,0.12725118954355963,-0.06614006442431056,-0.07610225285701903,0.9103781599745056,-0.007319061088914192
-2.550078089538042,-0.7510100123668936,0.6158194905221046,0.22367141368809873,2.605029078131117,-0.021391619359149624,-1.0,0.12725118954355996,-0.06614006442431036,-0.07610225285701883,0.9103781599745031,-0.007319061088914173
-2.6342485663055397,-0.7402992190737809,0.6102524497660773,0.21726585078204277,2.6816560418948887,-0.02200766822049397,-0.9571699121199566,0.12180100991256829,-0.06330727965262592,-0.07284278667928355,0.8713865833787233,-0.007005585059276592
-2.7184190430730375,-0.7295884257806684,0.6046854090100501,0.21086028787598682,2.75828300565866,-0.022623717081838322,-0.8751785692154941,0.11136751399570238,-0.05788436695068855,-0.06660306076948178,0.796743455491522,-0.006405485411796738
-2.802589519840535,-0.7188776324875557,0.5991183682540229,0.20445472496993086,2.8349099694224313,-0.02323976594318267,-0.7904213666857274,0.10058205915140528,-0.052278520114945465,-0.06015284671110789,0.7195823494078868,-0.005785142268755886
-2.8867599966080326,-0.7081668391944431,0.5935513274979957,0.1980491620638749,2.9115369331862024,-0.023855814804527017,-0.6887765291936935,0.08764763266958112,-0.04555572401482377,-0.052417445586678386,0.6270471092809792,-0.0050411974937789195
-2.97093047337553,-0.6974560459013306,0.5879842867419685,0.19164359915781898,2.9881638969499735,-0.02447186366587136,-0.5634321749721685,0.07169741449232342,-0.03726544035138864,-0.04287845784751232,0.5129363467215977,-0.004123794508081089
-3.0551009501430273,-0.686745252608218,0.5824172459859412,0.185238036251763,3.064790860713745,-0.02508791252721571,-0.35011736648727226,0.04455285136536398,-0.023156785175538097,-0.026644720354048152,0.3187392038778033,-0.0025625303936101075
-3.139271426910525,-0.6760344593151053,0.576850205229914,0.17883247334570704,3.141417824477516,-0.025703961388560057,0.0,0.0,0.0,0.0,0.0,0.0
-3.139271426910525,-0.6760344593151053,0.576850205229914,0.17883247334570704,3.141417824477516,-0.025703961388560057,0.0,0.0,0.0,0.0,0.0,0.0
-3.069152338410012,-0.6038900428531583,0.5490521936158733,0.17429344348152026,3.140415381649889,-0.038203594061782385,0.31252550132820467,0.32155252449745775,-0.12389761049933942,-0.020230761896431144,-0.004467955216711859,-0.055711704917393606
-2.9990332499094983,-0.5317456263912113,0.5212541820018326,0.16975441361733346,3.1394129388222622,-0.050703226735004714,0.5075757160672076,0.5222365924744659,-0.20122331810029143,-0.032856977790693645,-0.007256449661998668,-0.090481923544135
-2.928914161408985,-0.45960120992926423,0.4934561703877918,0.16521538375314668,3.138410495994635,-0.06320285940822704,0.6230834805122728,0.6410806967108232,-0.24701521651511948,-0.040334159875822645,-0.008907782166163457,-0.11107267361439374
-2.858795072908472,-0.3874567934673172,0.4656581587737511,0.16067635388895987,3.137408053167008,-0.07570249208144936,0.7190173331916012,0.7397855140223846,-0.28504723330238935,-0.04654426088554653,-0.01027928035020159,-0.12817412123817207
-2.7886759844079583,-0.3153123770053702,0.43786014715971033,0.1561373240247731,3.136405610339381,-0.08820212475467169,0.8013125943376158,0.8244578011260499,-0.31767236682934163,-0.051871492827816834,-0.011455797273734108,-0.14284431386431495
-2.718556895907445,-0.24316796054342316,0.4100621355456696,0.1515982941605863,3.135403167511754,-0.10070175742789401,0.8763837832435454,0.9016973550412926,-0.3474335891400345,-0.056731087777935715,-0.0125290367651433,-0.1562267223601037
-2.648437807406932,-0.17102354408147613,0.3822641239316289,0.1470592642963995,3.134400724684127,-0.11320139010111635,0.943762860668615,0.9710226176271032,-0.3741453507567253,-0.06109274807891752,-0.013492307599677669,-0.16823791268907917
-2.5783187189064183,-0.0988791276195291,0.3544661123175882,0.14252023443221273,3.1333982818565,-0.12570102277433867,0.9719267538534754,1.0,-0.3853106446387707,-0.0629158857578525,-0.013894946785739175,-0.17325849020922254
-2.508199630405905,-0.02673471115758208,0.3266681007035474,0.13798120456802593,3.132395839028873,-0.138200655447561,0.9719267538534723,1.0,-0.3853106446387707,-0.0629158857578525,-0.013894946785742253,-0.17325849020922274
-2.438080541905392,0.045409705304364945,0.2988700890895067,0.13344217470383915,3.1313933962012457,-0.15070028812078334,0.9719267538534746,1.0,-0.3853106446387704,-0.06291588575785245,-0.013894946785739163,-0.1732584902092228
-2.3679614534048783,0.11755412176631208,0.2710720774754659,0.12890314483965234,3.130390953373619,-0.1631999207940057,0.9719267538534754,1.0,-0.3853106446387703,-0.0629158857578525,-0.013894946785739173,-0.17325849020922252
-2.297842364904365,0.189698538228259,0.24327406586142525,0.12436411497546557,3.1293885105459918,-0.175699553467228,0.9719267538534754,1.0,-0.3853106446387703,-0.0629158857578524,-0.013894946785742253,-0.17325849020922252
-2.2277232764038515,0.26184295469020613,0.21547605424738447,0.11982508511127878,3.1283860677183646,-0.18819918614045034,0.9719267538534754,1.0,-0.3853106446387706,-0.0629158857578525,-0.013894946785739175,-0.17325849020922252
-2.1576041879033383,0.33398737115215305,0.18767804263334376,0.11528605524709198,3.127383624890738,-0.20069881881367263,0.9719267538534754,1.0,-0.3853106446387706,-0.0629158857578525,-0.013894946785739175,-0.17325849020922252
-2.0874850994028247,0.4061317876141002,0.15988003101930298,0.11074702538290519,3.1263811820631107,-0.21319845148689498,0.9719267538534754,1.0,-0.3853106446387706,-0.0629158857578524,-0.013894946785742253,-0.17325849020922252
-2.0173660109023115,0.4782762040760471,0.13208201940526226,0.10620799551871841,3.1253787392354835,-0.22569808416011727,0.9719267538534739,1.0,-0.3853106446387703,-0.0629158857578524,-0.013894946785739173,-0.17325849020922252
-1.947246922401798,0.5504206205379942,0.10428400779122154,0.10166896565453162,3.1243762964078567,-0.23819771683333962,0.9719267538534739,1.0,-0.3853106446387706,-0.0629158857578525,-0.013894946785739173,-0.17325849020922252
-1.877127833901285,0.6225650369999411,0.07648599617718077,0.09712993579034483,3.1233738535802296,-0.2506973495065619,0.9719267538534739,1.0,-0.3853106446387706,-0.0629158857578525,-0.013894946785739173,-0.17325849020922252
-1.8070087454007715,0.6947094534618883,0.04868798456314005,0.09259090592615804,3.122371410752603,-0.26319698217978427,0.9719267538534739,1.0,-0.3853106446387703,-0.0629158857578524,-0.013894946785739173,-0.1732584902092229
-1.7368896569002583,0.7668538699238352,0.020889972949099334,0.08805187606197126,3.1213689679249756,-0.2756966148530066,0.9719267538534739,1.0,-0.3853106446387704,-0.0629158857578524,-0.01389494678574223,-0.17325849020922265
-1.6667705683997447,0.8389982863857826,-0.006908038664941496,0.08351284619778446,3.1203665250973485,-0.28819624752622897,0.9719267538534739,1.0,-0.3853106446387704,-0.0629158857578525,-0.013894946785739153,-0.17325849020922265
-1.5966514798992315,0.9111427028477295,-0.034706050278982215,0.07897381633359767,3.1193640822697217,-0.3006958801994513,0.9719267538534754,1.0,-0.38531064463877085,-0.0629158857578525,-0.013894946785739196,-0.1732584902092228
-1.526532391398718,0.9832871193096764,-0.06250406189302293,0.07443478646941089,3.1183616394420945,-0.3131955128726736,0.9719267538534754,1.0,-0.3853106446387701,-0.0629158857578525,-0.013894946785742273,-0.1732584902092224
-1.456413302898205,1.0554315357716233,-0.09030207350706354,0.0698957566052241,3.1173591966144674,-0.3256951455458959,0.9719267538534739,1.0,-0.3853106446387697,-0.0629158857578525,-0.013894946785739153,-0.17325849020922263
-1.3862942143976913,1.1275759522335707,-0.11810008512110437,0.06535672674103729,3.1163567537868406,-0.3381947782191183,0.9719267538534739,1.0,-0.3853106446387704,-0.0629158857578524,-0.013894946785739153,-0.17325849020922263
-1.316175125897178,1.1997203686955176,-0.1458980967351451,0.06081769687685051,3.1153543109592134,-0.3506944108923406,0.9719267538534754,1.0,-0.38531064463877085,-0.0629158857578525,-0.013894946785742273,-0.1732584902092224
-1.2460560373966647,1.2718647851574645,-0.1736961083491858,0.05627866701266372,3.1143518681315863,-0.3631940435655629,0.9719267538534754,1.0,-0.38531064463877085,-0.06291588575785259,-0.013894946785739196,-0.1732584902092228
-1.1759369488961515,1.3440092016194114,-0.20149411996322653,0.05173963714847693,3.1133494253039595,-0.37569367623878525,0.9719267538534739,1.0,-0.3853106446387704,-0.0629158857578523,-0.013894946785739153,-0.17325849020922265
-1.105817860395638,1.4161536180813588,-0.22929213157726736,0.04720060728429015,3.1123469824763323,-0.3881933089120076,0.9719267538534739,1.0,-0.3853106446387704,-0.0629158857578524,-0.01389494678574223,-0.17325849020922227
-1.0356987718951247,1.4882980345433057,-0.2570901431913081,0.04266157742010335,3.111344539648705,-0.4006929415852299,0.9437628606686135,0.9710226176271033,-0.37414535075672584,-0.06109274807891781,-0.013492307599677868,-0.16823791268907934
-0.9655796833946115,1.5604424510052526,-0.2848881548053488,0.03812254755591657,3.1103420968210784,-0.41319257425845224,0.884797327663533,0.9103539172633177,-0.3507690547101593,-0.05727572305775232,-0.012649319236562926,-0.1577265452610942
-0.8954605948940979,1.6325868674671995,-0.3126861664193895,0.03358351769172979,3.1093396539934512,-0.42569220693167453,0.8213231888194226,0.8450463839616082,-0.32560536695390924,-0.05316684175341482,-0.011741874536630448,-0.146411460641951
-0.8253415063935847,1.7047312839291469,-0.34048417803343034,0.029044487827542986,3.108337211165824,-0.4381918396048969,0.7513029355385292,0.7730036574873363,-0.2978465375745723,-0.04863420980487532,-0.01074084468596839,-0.13392944662246295
-0.7552224178930711,1.7768757003910938,-0.36828218964747095,0.02450545796335621,3.1073347683381973,-0.45069147227811923,0.6694513050091047,0.6887878148789264,-0.2653972769703289,-0.04333569547232344,-0.009570670034408122,-0.11933833688043244
-0.6851033293925579,1.8490201168530407,-0.39608020126151167,0.019966428099169403,3.10633232551057,-0.4631911049513415,0.5992681565249598,0.616577488117283,-0.23757386941622485,-0.03879251880325069,-0.008567311386676286,-0.10682728468819523
-0.6149842408920447,1.9211645333149876,-0.4238782128755525,0.015427398234982626,3.105329882682943,-0.4756907376245638,0.5097835288063135,0.5245081759352079,-0.2020985833879011,-0.03299989647619909,-0.007288013193305029,-0.09087549466492745
-0.5448651523915311,1.993308949776935,-0.4516762244895933,0.01088836837079582,3.1043274398553162,-0.4881903702977862,0.31473331406731003,0.3238241079581995,-0.12477287578694843,-0.020373680581936567,-0.004499518748018216,-0.056105276038186054
-0.4747460638910179,2.0654533662388816,-0.4794742361036338,0.006349338506609037,3.103324997027689,-0.5006900029710085,0.0,0.0,0.0,0.0,0.0,0.0
-0.4747460638910179,2.0654533662388816,-0.4794742361036338,0.006349338506609037,3.103324997027689,-0.5006900029710085,0.0,0.0,0.0,0.0,0.0,0.0
-0.474554725306173,2.0662455134186724,-0.4814141181120957,0.006668385196639005,3.102840375436491,-0.5011569468205015,-0.0008938886220287141,0.005900358881635561,-0.1552231186081449,0.14322758809202493,0.0012853802033453705,-0.0022445024086986676
-0.47544860451877075,2.0692832694080945,-0.5876541742349495,0.10674709861756317,3.104417526515027,-0.5020818377401799,-0.004083147054114084,-0.03277266142331734,-0.39230097958722554,0.41085102175311766,0.007203404902514523,-0.00420897319741566
-0.47634580708152224,2.0574353550453712,-0.664592724824144,0.1924129254646592,3.1060002676638767,-0.5030051114401555,-0.006086880499690936,-0.11780902067594409,-0.4484266277542017,0.5451174287848676,0.010736686751346767,-0.006245354248122718
-0.4772463536917139,2.0352584919548167,-0.7216089895364646,0.2684883713146231,3.107588609890367,-0.5039267703353557,-0.006874530910454782,-0.20196483551666078,-0.37068022484624763,0.5489035822333439,0.012123741584350891,-0.007015573469301189
-0.47815025883536755,2.0047888893008037,-0.7626134803161624,0.33684774711994364,3.109182565082379,-0.5048468099705116,-0.006974758528934557,-0.261023243147134,-0.26408046048010936,0.5011241033219077,0.012298150812992292,-0.007080430858339534
-0.479057537496986,1.967245099323424,-0.7897167916310579,0.3983831031811082,3.1107821450127418,-0.5057652264868537,-0.007334531543869926,-0.33023254214980663,-0.16323430149026613,0.4683746345447154,0.012929697125088319,-0.0074025967235983
-0.47996820481693614,1.9234105440694624,-0.8040628416741333,0.45345494380193,3.1123873616603883,-0.5066820160025713,-0.008226669972901895,-0.4222267893466065,-0.0722695472204076,0.4664810145256433,0.014499360204574051,-0.008258351229232231
-0.48088227604070977,1.873794668801532,-0.8061896117966235,0.502091813238881,3.1139982270705504,-0.5075971746856457,-0.008339816617843925,-0.4761994059131583,0.03449584038430208,0.4134318720904546,0.014695618798727546,-0.00832730137037424
-0.4817997664817072,1.8186927678253813,-0.796174058564917,0.5440753818504586,3.1156147532059597,-0.508510698850107,-0.00813200181408612,-0.5113102255254496,0.14377140072059555,0.3401024180466584,0.014326101493967864,-0.008074538206979585
-0.4827206915574294,1.758186974429184,-0.7736511712936445,0.5789585138157108,3.1172369521771115,-0.5094225847876483,-0.007998041430783549,-0.5483067455902892,0.25235247790409177,0.2690956604883744,0.014086788807086225,-0.007897998276214478
-0.4836450668486278,1.6920938251737092,-0.7377175072342976,0.6060212382163918,3.1188648365805247,-0.510332828521291,-0.0077523915184463344,-0.5786548935683353,0.3630148050890273,0.18972888987205122,0.013650789946862363,-0.0076130706248703685
-0.4845729078728023,1.6198311704361934,-0.6866596142150762,0.6241322604174798,3.1204984181792375,-0.5112414267649785,-0.007320186278804176,-0.5971646949545523,0.4709606763765698,0.10185108573362735,0.012886535492818575,-0.007149338511097983
-0.4855042303968808,1.540107735894835,-0.6172988927486178,0.631404263631426,3.122137709638723,-0.5121483756764319,-0.0067536312991187805,-0.6128606064503275,0.5880090828675834,0.002489663955968606,0.011886071444276974,-0.006559296864238815
-0.48643905026351464,1.450093324662189,-0.5232179818056282,0.6242500919240114,3.123782723358322,-0.5130536717346115,-0.006005242892453511,-0.6301939974068982,0.7254888995697726,-0.11508698447430463,0.010566200705412608,-0.005800727103749676
-0.48737738006848136,1.3420523111203897,-0.3875404893308777,0.5935289871938132,3.125433471842999,-0.5139573080135885,-0.003384441546421299,-0.43295112408716796,0.584609548422492,-0.16277450328791648,0.005953738273467018,-0.0032559285167326046
-0.48831924145824585,1.168816344228858,-0.10872126872332741,0.4848641619875197,3.127089967694056,-0.514859286730234,0.0,0.0,0.0,0.0,0.0,0.0
-0.48831924145824585,1.168816344228858,-0.10872126872332741,0.4848641619875197,3.127089967694056,-0.514859286730234,0.0,0.0,0.0,0.0,0.0,0.0
-0.48831924145824585,1.168816344228858,-0.10872126872332741,0.4848641619875197,3.127089967694056,-0.514859286730234,0.0,0.0,0.0,0.0,0.0,0.0
-0.45996706620685507,1.270187282779222,-0.3405711241307014,0.6152700892391382,3.12721986109772,-0.519888126986064,0.14628923935849047,0.3528292740770079,-0.8266216573593783,0.4734630428763644,0.0005928079485467994,-0.022889051893016193
-0.4307704191752275,1.3192502098926977,-0.4591723193598886,0.6847485569701667,3.127328463400965,-0.5240726614600729,0.19355530346851946,0.26824640786923254,-0.6589951233026033,0.39039978731286307,0.00063638477339655,-0.02449564338900421
-0.40075222964715984,1.3531959079207667,-0.5442848230260134,0.7358676284045165,3.1274159348365576,-0.5274358367277212,0.21056083337744613,0.20471757850215747,-0.5201625472208105,0.3151540190966986,0.0005348049178988663,-0.020548116805892462
-0.36994483695015296,1.3784043918211017,-0.60947195913835,0.7758099452277636,3.1274829937877833,-0.5300099906602793,0.2577395925211042,0.17974588865442043,-0.47096610775021674,0.2909716585208406,0.0004599450512740972,-0.017645090020513236
-0.33838639482341715,1.3977128125486054,-0.6606896702782196,0.807693605428659,3.127530549388491,-0.5318332722498922,0.30887800401760396,0.16477452703269604,-0.4412870355997339,0.27631313311812994,0.00037047022361577945,-0.014199158871556608
-0.3061237872989776,1.4125082577156327,-0.7007949151544255,0.8329877170503773,3.127559767918216,-0.5329525571433485,0.31783370556644036,0.1264257805236128,-0.3453458249964373,0.21881131085882444,0.00020268985080590493,-0.007762956098281154
-0.2732116597079965,1.4236218364379634,-0.731465487426033,0.8525381391840919,3.127572043435196,-0.5334224790909932,0.30788141264132735,0.08913527883658312,-0.24738599376206127,0.1582260993528787,4.6114480936865005e-05,-0.001764109320636658
-0.23971212728962238,1.4315777582788842,-0.7537376827099687,0.8668560657032968,3.127568985373532,-0.5333051388737526,0.3397850016187601,0.06407912154524396,-0.18025863009922355,0.11623707706007907,-0.00010701070665114841,0.00410129445525246
-0.20569425122853954,1.4367089873407932,-0.7682570529025915,0.8762531232411067,3.127552399632895,-0.5326695807399852,0.37408317575649946,0.04218224616255694,-0.11965843324063224,0.07760660079377955,-0.00024234945591580938,0.009288719056303595
-0.1712333021859133,1.4392146239680343,-0.7754035756757575,0.8809091591645433,3.127524263945133,-0.5315910563981011,0.376571420124264,0.013110794579967432,-0.03753544929924489,0.024617974200098605,-0.0003584049443036567,0.013744069473986922
-0.13640982851799902,1.4391886005241628,-0.7753546506591111,0.8809065450230745,3.1274866982508356,-0.5301500937390575,0.40206928102140016,-0.015282411006775255,0.04315315158142247,-0.027613884321752893,-0.0004745917662825911,0.01821347771327315
-0.10130855618811989,1.4366317874244883,-0.7681118037157314,0.8762447810069512,3.1274419311000674,-0.5284313972708391,0.39956340343823177,-0.04328098300209747,0.12226789582286712,-0.07869627068211979,-0.0005349009790986377,0.020546412424959352
-0.06601715711783494,1.431451997108454,-0.7535006872914444,0.8668405018339851,3.1273922633427014,-0.5265226169858949,0.3861762619558623,-0.07209189592985686,0.20220073339707545,-0.129804871131233,-0.0005568009691382929,0.02141065109646155
-0.03062493057656022,1.4234518733722592,-0.7311443513391066,0.8525128710472869,3.127340030545813,-0.524513030235084,0.38291933704977277,-0.10332204765391062,0.2865010103914487,-0.18286834168569885,-0.000566269942221838,0.021798867404221246
0.004778552816868959,1.4123001259001757,-0.7004000873642039,0.8329492061027838,3.1272875656438153,-0.52249218615914,0.3715152704726766,-0.13618723465804378,0.3717859592572419,-0.23530080844754642,-0.0005404607911841598,0.020828997314397482
0.04010479333254739,1.3974737977954683,-0.6602335049072168,0.8076368052173064,3.127237163282704,-0.5205485638067258,0.35728910994937535,-0.17262816108801948,0.4621915101338358,-0.28929215536545616,-0.0004896813571279809,0.01889274628452169
0.0752676413559335,1.3781408384645102,-0.6089639907536158,0.7757258531951086,3.1271910471699456,-0.5187682931787486,0.33639666524151934,-0.21302340354463756,0.5571339982536269,-0.34388092530799086,-0.0004129172895370022,0.01594730193307478
0.11018446928430138,1.3528981740480037,-0.5436995756770991,0.7357262380049988,3.127151341508104,-0.5172339835099498,0.30769917038798666,-0.25952292216518236,0.6601110349056598,-0.40041165776918597,-0.0003160543415089346,0.012217267773257219
0.1447771984620784,1.3190792951051027,-0.45884709135040996,0.6847101401335723,3.127120047318484,-0.5160236964202144,0.25340432538321145,-0.2970914462376263,0.7312518761886571,-0.43404955186505734,-0.00019800729878849342,0.007659546478511725
0.17897343817999217,1.269996274006279,-0.34018645108300977,0.6151443191692775,3.1270990167664565,-0.5152098069818568,0.1326327084337589,-0.22870053452229927,0.5433566184488572,-0.3146151374518786,-7.297187420437431e-05,0.0028241888360675087
0.21270620327372564,1.1694429046038806,-0.11006800578819241,0.4855843337282702,3.1270899648201733,-0.5148592858313741,0.0,0.0,0.0,0.0,0.0,0.0
0.21270620327372564,1.1694429046038806,-0.11006800578819241,0.4855843337282702,3.1270899648201733,-0.5148592858313741,0.0,0.0,0.0,0.0,0.0,0.0
0.21270620327372564,1.1694429046038806,-0.11006800578819241,0.4855843337282702,3.1270899648201733,-0.5148592858313741,0.0,0.0,0.0,0.0,0.0,0.0
0.21436925543382135,1.332601536685538,-0.3665554962517545,0.580490365146686,3.126222246371692,-0.5132172815043176,0.007812887730223862,0.5964185961084156,-0.8299104482757791,0.2409390155629135,-0.0040774195177579,0.007717787236538209
0.21602127727269,1.435631883499716,-0.49114372808465073,0.603628060139054,3.1253599544626685,-0.5115848554709559,0.010340947979572508,0.5888130751297325,-0.6487204595334809,0.06984072099826821,-0.005398689088926673,0.010222748174430484
0.21766236587663157,1.5214838644829567,-0.5763512619140893,0.604566021879581,3.1245030424638522,-0.5099619213458325,0.011788592375547365,0.5792565291166965,-0.5208902882415636,-0.04694974356238038,-0.006156708799575917,0.011663175345205848
0.21929264872425974,1.5969327115657812,-0.6370445167646929,0.5913954018184118,3.123651465744805,-0.5083483616846749,0.012650740865160857,0.5573168803604284,-0.4006454709674625,-0.14432076548477255,-0.006609320747838372,0.012526188595165928
0.22091221630727229,1.664809948803028,-0.6796649863113882,0.5677261334393321,3.122805180003331,-0.5067440962337558,0.012650509357529297,0.5070873042220396,-0.2753186515841029,-0.21931889650631536,-0.006611524455640754,0.012536038835962354
0.22252117211025516,1.7262525891871328,-0.7070756213001985,0.5352841190300054,3.1219641407861825,-0.5051490317782633,0.012696517018757639,0.4622710602525478,-0.16126972579116722,-0.2884023205687489,-0.0066379468387351434,0.012592218281626023
0.2241196176762379,1.7817322646711449,-0.7207538542721935,0.4950751250467017,3.1211283055506995,-0.5035630765920469,0.013809058783582028,0.453802820929315,-0.05827753312252587,-0.38170907540196497,-0.007222131826876673,0.01370718811141857
0.22570765345285262,1.8313199567054537,-0.7213480905647196,0.4476765408503957,3.1202976303871273,-0.5019861404974542,0.014050032975943644,0.4139915732566414,0.05043624321672501,-0.4502629283338405,-0.0073505140991378375,0.013957413311064554
0.22728537833889045,1.8747888237218158,-0.7088845807087579,0.3933414253276746,3.119472073276894,-0.5004181344121945,0.01331992447680548,0.3402866897526923,0.16292222199869136,-0.4896706853131687,-0.006970884940907716,0.013243371344917675
0.2288528901225531,1.9116243811662825,-0.6827744786486851,0.33199538386771765,3.1186515917973057,-0.4988589705449708,0.012631291545436081,0.2685841477731168,0.2694096424200966,-0.5250547050771113,-0.006612599503664487,0.012569094770940297
0.2304102852191555,1.9409429202770874,-0.6416240713915944,0.26312838008305334,3.117836144771067,-0.4973085621998718,0.011953614871536521,0.191312404136407,0.3847750338513769,-0.5637437706661442,-0.006259846404593199,0.011904978633001249
0.2319576590009544,1.9612458912990747,-0.5826940600078258,0.1854996325845782,3.11702569032039,-0.49576682398105754,0.010201635979365176,0.10124180851103931,0.454741950079116,-0.5453722102027477,-0.005343911304009937,0.010168124804004877
0.23349510531355472,1.9697325789139692,-0.5004125203410245,0.0963379015614152,3.116220188418822,-0.4942336715721501,0.008330765332425263,-0.003156004756657796,0.5466799506278155,-0.5347859746364974,-0.004365297632574871,0.008310948028968895
0.23502272516493294,1.959583822440851,-0.38053106573271644,-0.011786070015591782,3.1154195978729624,-0.49270901386405896,0.005164070019207904,-0.07162630118950021,0.48382957508122093,-0.4067557942139603,-0.0027065460002131296,0.0051550217778333724
0.2365405965031162,1.8991025499788161,-0.15530381471161261,-0.1749211220239726,3.1146238795900976,-0.4911927823221175,0.0,0.0,0.0,0.0,0.0,0.0
0.2365405965031162,1.8991025499788161,-0.15530381471161261,-0.1749211220239726,3.1146238795900976,-0.4911927823221175,0.0,0.0,0.0,0.0,0.0,0.0
0.23117907178232805,1.8155027205133303,-0.10450142311825195,-0.1452241735506965,3.1164162876390495,-0.4964789543524774,-0.022316920225670556,-0.34797764110405127,0.21146091447950013,0.12361118609680287,0.00746075594601343,-0.022003270644879454
0.22581754706153992,1.7319028910478442,-0.05369903152489128,-0.1155272250774204,3.118208695688002,-0.5017651263828373,-0.03609670243284205,-0.5628395512104234,0.34202934943339924,0.19993601970107333,0.01206746650451825,-0.035589387110140154
0.22045602234075176,1.6483030615823582,-0.0028966399315305813,-0.0858302766041443,3.120001103736954,-0.5070512984131973,-0.044052264679582495,-0.6868870342987398,0.4174111875581432,0.244001082238482,0.014727085651607338,-0.04343313918153291
0.21509449761996363,1.5647032321168723,0.04790575166183006,-0.056133328130868215,3.1217935117859064,-0.5123374704435572,-0.05086726187736425,-0.7931502025600551,0.48198575811024313,0.28174866919697206,0.01700540319503433,-0.05015235609276253
0.20973297289917547,1.4811034026513865,0.0987081432551907,-0.02643637965759213,3.1235859198348583,-0.5176236424739171,-0.056689283693443275,-0.8839303549076492,0.5371515267242977,0.3139962649624112,0.01895175974615534,-0.0558925532357462
0.20437144817838732,1.3975035731859005,0.14951053484855145,0.003260568815683984,3.1253783278838103,-0.5229098145042771,-0.06167956868630796,-0.9617416112411562,0.5844362872303954,0.34163695376227277,0.020620058868811363,-0.060812703067476506
0.19900992345759919,1.3139037437204144,0.2003129264419121,0.03295751728896007,3.1271707359327627,-0.528195986534637,-0.06413320164727897,-1.0,0.6076853495775891,0.35522738100245077,0.021440331402735595,-0.06323185183699809
0.19364839873681103,1.2303039142549286,0.25111531803527276,0.06265446576223616,3.1289631439817147,-0.5334821585649969,-0.06413320164727905,-1.0,0.6076853495775898,0.35522738100245127,0.021440331402735623,-0.06323185183699817
0.1882868740160229,1.1467040847894427,0.3019177096286334,0.09235141423551224,3.130755552030667,-0.5387683305953568,-0.06197569836493473,-0.9663590273535678,0.5872422233548116,0.3432771863948836,0.020719057800485816,-0.06110467083896637
0.18292534929523474,1.0631042553239567,0.35272010122199404,0.12204836270878833,3.132547960079619,-0.5440545026257168,-0.05725617653037767,-0.8927696584567257,0.5425230419915402,0.3171362276120349,0.019141277343616883,-0.05645147876810363
0.17756382457444658,0.9795044258584708,0.4035224928153548,0.1517453111820644,3.134340368128571,-0.5493406746560767,-0.05137593449613789,-0.8010817045856558,0.48680561569134545,0.2845661558889413,0.017175457226984634,-0.05065387965369003
0.17220229985365842,0.8959045963929846,0.45432488440871555,0.18144225965534055,3.1361327761775235,-0.5546268466864366,-0.04445301241871829,-0.6931357125003965,0.42120841775551476,0.2462207838307836,0.0148610593830799,-0.043828254675757114
0.1668407751328703,0.8123047669274988,0.5051272760020762,0.21113920812861664,3.1379251842264755,-0.5599130187167966,-0.036271480192407814,-0.5655647817474402,0.34368543210496605,0.20090409620736588,0.012125896350380758,-0.03576170848367836
0.16147925041208216,0.7287049374620127,0.5559296675954368,0.24083615660189273,3.139717592275428,-0.5651991907471564,-0.022328859706566458,-0.34816380802834684,0.2115740453919704,0.12367731768574963,0.007464747426566557,-0.022015042324253366
0.156117725691294,0.6451051079965269,0.6067320591887975,0.2705331050751688,3.14151000032438,-0.5704853627775164,0.0,0.0,0.0,0.0,0.0,0.0
0.156117725691294,0.6451051079965269,0.6067320591887975,0.2705331050751688,3.14151000032438,-0.5704853627775164,0.0,0.0,0.0,0.0,0.0,0.0
0.15278834414969503,0.6239779508413725,0.5847291278131387,0.261148989905064,3.031125159576512,-0.5508507543239312,-0.012061409856268478,-0.0765377288130604,-0.07971041169217105,-0.03399600129659577,-0.39989313016361006,0.07113064602752307
0.14945896260809605,0.6028507936862182,0.5627261964374799,0.2517648747349592,2.920740318828644,-0.5312161458703458,-0.019490733952754927,-0.12368176916466989,-0.12880869202444392,-0.054936116476059865,-0.6462105759139426,0.11494414949256664
0.1461295810664971,0.5817236365310638,0.5407232650618211,0.2423807595648544,2.810355478080776,-0.5115815374167606,-0.023829541249727467,-0.1512144092312231,-0.1574826298157988,-0.06716537493351107,-0.7900626837387446,0.14053171924604727
0.1428001995248981,0.5605964793759094,0.5187203336861623,0.23299664439474957,2.6999706373329078,-0.49194692896317527,-0.02749848733988515,-0.17449633101520734,-0.18172964627638727,-0.07750657861736687,-0.91170570506698,0.16216886687165705
0.13947081798329913,0.539469322220755,0.4967174023105035,0.22361252922464475,2.5895857965850397,-0.47231232050959,-0.029718059201411764,-0.18858100198178834,-0.19639816255856102,-0.08376261077128036,-0.9852950739638222,0.17525851246834037
0.13614143644170015,0.5183421650656007,0.4747144709348447,0.21422841405453996,2.4792009558371717,-0.4526777120560047,-0.03016158304928554,-0.19139545803586613,-0.19932928495060384,-0.08501271647924218,-1.0,0.17787413851901127
0.13281205490010117,0.49721500791044637,0.45271153955918586,0.20484429888443514,2.3688161150893037,-0.43304310360241943,-0.03016158304928554,-0.19139545803586613,-0.19932928495060384,-0.0850127164792423,-1.0,0.17787413851901127
0.1294826733585022,0.47608785075529203,0.4307086081835271,0.19546018371433033,2.2584312743414356,-0.41340849514883415,-0.030161583049285477,-0.191395458035866,-0.1993292849506032,-0.085012716479242,-1.0,0.1778741385190109
0.1261532918169032,0.45496069360013763,0.4087056768078683,0.18607606854422554,2.148046433593567,-0.3937738866952489,-0.030161583049285415,-0.19139545803586663,-0.1993292849506036,-0.08501271647924218,-1.0,0.1778741385190113
0.12282391027530426,0.43383353644498324,0.3867027454322095,0.17669195337412072,2.0376615928456996,-0.3741392782416636,-0.030161583049285477,-0.19139545803586677,-0.19932928495060398,-0.08501271647924247,-1.0,0.17787413851901138
0.11949452873370528,0.4127063792898289,0.3646998140565507,0.1673078382040159,1.9272767520978316,-0.3545046697880784,-0.030161583049285512,-0.19139545803586594,-0.1993292849506034,-0.08501271647924209,-1.0,0.1778741385190111
0.1161651471921063,0.39157922213467455,0.34269688268089193,0.1579237230339111,1.8168919113499633,-0.33487006133449304,-0.030161583049285512,-0.1913954580358662,-0.19932928495060365,-0.08501271647924209,-1.0,0.17787413851901135
0.11283576565050732,0.37045206497952016,0.3206939513052331,0.1485396078638063,1.7065070706020953,-0.31523545288090776,-0.03016158304928554,-0.19139545803586638,-0.19932928495060384,-0.0850127164792423,-1.0,0.17787413851901127
0.10950638410890834,0.3493249078243658,0.2986910199295743,0.13915549269370148,1.5961222298542272,-0.2956008444273225,-0.03016158304928545,-0.1913954580358662,-0.1993292849506034,-0.08501271647924222,-1.0,0.1778741385190111
0.10617700256730937,0.3281977506692114,0.2766880885539155,0.12977137752359666,1.485737389106359,-0.2759662359737372,-0.030161583049285415,-0.19139545803586613,-0.1993292849506036,-0.08501271647924218,-1.0,0.17787413851901102
0.1028476210257104,0.30707059351405713,0.25468515717825674,0.12038726235349187,1.3753525483584912,-0.256331627520152,-0.03016158304928554,-0.19139545803586627,-0.199329284950604,-0.08501271647924222,-1.0,0.17787413851901138
0.09951823948411143,0.2859434363589028,0.23268222580259795,0.11100314718338708,1.2649677076106234,-0.2366970190665667,-0.030161583049285512,-0.1913954580358662,-0.19932928495060365,-0.08501271647924222,-1.0,0.17787413851901135
0.09618885794251245,0.2648162792037484,0.2106792944269391,0.10161903201328223,1.154582866862755,-0.21706241061298137,-0.030161583049285477,-0.19139545803586638,-0.19932928495060384,-0.0850127164792423,-1.0,0.1778741385190113
0.09285947640091348,0.24368912204859405,0.18867636305128033,0.09223491684317744,1.0441980261148873,-0.19742780215939615,-0.030161583049285477,-0.19139545803586638,-0.19932928495060384,-0.08501271647924218,-1.0,0.1778741385190113
0.0895300948593145,0.22256196489343966,0.1666734316756215,0.08285080167307263,0.9338131853670188,-0.17779319370581081,-0.030161583049285477,-0.191395458035866,-0.1993292849506032,-0.08501271647924213,-1.0,0.1778741385190109
0.08620071331771552,0.20143480773828532,0.14467050029996276,0.07346668650296781,0.8234283446191508,-0.1581585852522256,-0.03016158304928554,-0.19139545803586652,-0.19932928495060376,-0.08501271647924236,-1.0,0.17787413851901138
0.08287133177611655,0.18030765058313097,0.12266756892430397,0.06408257133286302,0.7130435038712832,-0.1385239767986403,-0.030161583049285477,-0.19139545803586638,-0.1993292849506041,-0.08501271647924218,-1.0,0.17787413851901152
0.07954195023451757,0.15918049342797658,0.10066463754864508,0.0546984561627582,0.6026586631234148,-0.11888936834505498,-0.030161583049285477,-0.191395458035866,-0.1993292849506032,-0.085012716479242,-1.0,0.1778741385190109
0.07621256869291859,0.13805333627282224,0.0786617061729864,0.04531434099265341,0.49227382237554673,-0.09925475989146976,-0.029429647202291027,-0.18675083456038544,-0.19449213005814547,-0.0829496996097411,-0.9757328438033743,0.17355763901623028
0.07288318715131963,0.1169261791176679,0.056658774797327616,0.035930225822548595,0.38188898162767915,-0.07962015143788448,-0.02708273653221866,-0.17185811351408775,-0.17898206797207997,-0.07633475333616702,-0.8979215874698672,0.1597170288288259
0.06955380560972065,0.09579902196251344,0.03465584342166872,0.026546110652443777,0.2715041408798107,-0.059985542984299145,-0.023593605197750007,-0.14971723686259678,-0.15592339585722664,-0.06650037122129794,-0.78224028092945,0.139140316085195
0.06622442406812167,0.0746718648073591,0.012652912046009934,0.017161995482338988,0.16111930013194264,-0.04035093453071392,-0.019297756388866355,-0.12245719719274245,-0.1275333584400435,-0.054392194530752336,-0.639812451399943,0.1138060886065016
0.06289504252652268,0.05354470765220476,-0.009350019329648851,0.007777880312234142,0.050734459384074615,-0.02071632607712859,-0.011977029535811595,-0.07600227913004254,-0.07915276626245055,-0.033758168943840754,-0.3970955210222403,0.07063302371158896
0.05956566098492372,0.03241755049705044,-0.03135295070530768,-0.0016062348578706562,-0.05965038136379358,-0.0010817176235433856,0.0,0.0,0.0,0.0,0.0,0.0
